X: 1910
T: Sweet Marie
C:Raymon Moore (1893)
B: australian traditional tunes wiki
M:2/4
L:1/8
R: March
Q: 1/4=100
K:G
V:1 
B>c|"G"dB ge|dB GA|B>A Bc|B2Bc|d>e fg|"Em"B2AG|"A7"A>G AB|"D"A2d/c/B/A/|
"G"G>F GA|B2AG|"C"cg cg|"G"d2Bc|d>e fg|B2"D7"AF|"G"GG/G/ GF|G2gf||
"C"e>c Gc|e2 a/g/f/e/|"G"dd/d/ dg|"Em"B2de/f/|"G"g>f ed|"Em"B2 AG|"A7"AA/A/ AB|"D"A2d/c/B/A/|
"G"G>F GA|B2AG|"C"cg cg|"G"d2Bc|d>e fg|B2"D7"AF|"G"GG/G/ GF|G2||
% abcbook-tune_id 6342d53a2361a8007b734b11


% abcbook-boost 0
% abcbook-tablature 
% abcbook-transpose 
% abcbook-lastupdated 1665324392289
% abcbook-soundfonts 
% abcbook-repeats 1
% NFF Book 2006

